src/assets/icons/github.svg

<svg width="41" height="39" xmlns="http://www.w3.org/2000/svg"><path d="M20.3486 0.0010414C15.0088 -0.0532191 9.86605 2.01482 6.05042 5.75066C2.2348 9.4865 0.0585672 14.5845 0 19.9241C0.0205749 24.144 1.37805 28.2488 3.87744 31.6489C6.37683 35.049 9.88954 37.5694 13.911 38.8483C14.9284 39.0333 15.2984 38.4228 15.2984 37.8863V34.5011C9.63782 35.7035 8.4354 31.8373 8.4354 31.8373C8.05858 30.6236 7.25746 29.5861 6.17856 28.9145C4.32869 27.6936 6.32655 27.7121 6.32655 27.7121C6.96596 27.7975 7.57772 28.0267 8.11595 28.3823C8.65417 28.7379 9.1049 29.2108 9.43433 29.7654C10.0084 30.7609 10.9504 31.4911 12.0575 31.7991C13.1646 32.107 14.3483 31.9679 15.3539 31.4118C15.4573 30.3988 15.9161 29.4551 16.6488 28.748C12.1351 28.2485 7.39947 26.5467 7.39947 18.9067C7.35911 16.9138 8.09547 14.9833 9.45283 13.5236C8.83465 11.8126 8.90765 9.92801 9.65631 8.26995C9.65631 8.26995 11.3767 7.73349 15.2059 10.3048C18.5392 9.41657 22.0469 9.41657 25.3802 10.3048C29.2649 7.73349 30.9298 8.26995 30.9298 8.26995C31.6785 9.92801 31.7515 11.8126 31.1333 13.5236C32.5222 14.9566 33.2985 16.8741 33.2976 18.8697C33.2976 26.5282 28.525 28.2115 24.0483 28.711C24.5385 29.1869 24.9171 29.7655 25.157 30.4052C25.3969 31.0449 25.4921 31.7299 25.4357 32.4107V37.8678C25.4357 38.5153 25.8057 39.0333 26.8231 38.8298C30.8332 37.543 34.334 35.0219 36.8257 31.6267C39.3173 28.2314 40.6723 24.1355 40.6971 19.9241C40.6385 14.5845 38.4623 9.4865 34.6467 5.75066C30.8311 2.01482 25.6883 -0.0532191 20.3486 0.0010414" fill="#fff"/></svg>

<svg width="41" height="39" xmlns="http://www.w3.org/2000/svg"><path d="M20.349.001A20.145 20.145 0 0 0 0 19.924a19.96 19.96 0 0 0 13.911 18.924c1.017.185 1.387-.425 1.387-.962v-3.385c-5.66 1.203-6.863-2.664-6.863-2.664a5.29 5.29 0 0 0-2.256-2.922c-1.85-1.221.148-1.203.148-1.203a4.272 4.272 0 0 1 3.107 2.053 4.385 4.385 0 0 0 5.92 1.647 4.31 4.31 0 0 1 1.295-2.664c-4.514-.5-9.25-2.201-9.25-9.841a7.677 7.677 0 0 1 2.054-5.383 6.993 6.993 0 0 1 .203-5.254s1.72-.537 5.55 2.035a19.757 19.757 0 0 1 10.174 0c3.885-2.572 5.55-2.035 5.55-2.035a6.992 6.992 0 0 1 .203 5.254 7.677 7.677 0 0 1 2.165 5.346c0 7.658-4.773 9.341-9.25 9.841a4.624 4.624 0 0 1 1.388 3.7v5.457c0 .647.37 1.165 1.387.962a19.98 19.98 0 0 0 13.874-18.906A20.145 20.145 0 0 0 20.35.001" fill="#fff"/></svg>
